X:5061
T:Derryveen Rampart
M:9/8
R:Slip Jig
L:1/8
Q:180
C:Aidan Crossey
K:G
|: ded B2G A2G|ded B2G A3|ded B2G A2G|BcB A2F G3:||
|:ded e2f g2a|bag fge d3|ded e2f g2e|ded cBA G3:||
|:DED FEF G2A|BAB cBc def|gfe dcB c2e|dBG cAF G3:||
